!!!!SEGMENT: pl-wumfc--r282--002-013_paderewski-ignacy-jan--exercises-2-exercise-13.krn
!!!cenid: 18xx:3188
!!!COM: Paderewski, Ignacy Jan
!!!COM-rismid: pe30029943
!!!CDT: 1860/11/18-1941/06/29
!!!CNT: Polish
!!!GTL: [Exercises 2]
!!!OTL: [Exercise] 13
!!!OMV: 013
!!!PDT:
!!!AGN:
!!!SMS-siglum: PL-Wumfc
!!!SMS-shelfmark: R282
!!!SMS-shelfwork: 002-013 G
!!!SMS-variant:
!!!SMS-altvar:
!!!NIFC-rismid: 1001158933
!!!URL-scan: http://repozytorium.nifc.pl/skany/pl-wumfc--r282
!!!ONB-nifc: UWAGA: druga grupa ćwiczeń od skanu 0008
!!!OMD:
!!!key: G
**kern	**kern
*part1	*part1
*staff2	*staff1
*I"Fortepian	*I"Fortepian
*Ipiano	*Ipiano
*ICklav	*ICklav
*clefF4	*clefG2
*k[f#]	*k[f#]
*G:	*G:
*M4/4	*M4/4
*	*^
!	!LO:TX:t=P:problem=brak metrum	!
!	!LO:TX:b:t=C.f.	!
2G\	8b/L	2g\
.	8a/	.
.	8b/	.
.	8cc/J	.
*	*v	*v
=1	=1
*^	*
2G/	2G\	8b/L
.	.	8cc/
.	.	8dd/
.	.	8ee/J
2F#\	2A/	8ff#/L
.	.	8gg/
.	.	8aa/
.	.	8ff#/J
=2	=2	=2
*	*	*^
2E\	2B/	8aa/L	2ryy
.	.	8ff#/	.
.	.	8ee/	.
.	.	8gg/J	.
2D\	2ryy	8ff#/L	2f#\
.	.	8ee/	.
.	.	8ff#/	.
.	.	8dd/J	.
*v	*v	*	*
=3	=3	=3
2G\	8gg/L	2g\
.	8ff#/	.
.	8gg/	.
.	8b/J	.
2A\	8cc/L	2e\
.	8b/	.
.	8a/	.
.	8g/J	.
=4	=4	=4
2B;>\	2f#;>/	2d\
2B\	8g/L	2d\
.	8a/	.
.	8b/	.
.	8cc/J	.
=5	=5	=5
2B\	8b/L	2g\
.	8cc/	.
.	8dd/	.
.	8ee/J	.
2B\	8ff#/L	2f#\
.	8ee/	.
.	8ff#/	.
.	8dd/J	.
!!LO:LB:g=original
=6	=6	=6
2A\	8cc/L	2a\
.	8dd/	.
.	8ee/	.
.	8ff#/J	.
2G\	8gg/L	2b\
.	8ff#/	.
.	8ee/	.
.	8dd/J	.
=7	=7	=7
2c\	8ee/L	2e\
.	8ff#/	.
.	8gg/	.
.	8e/J	.
2B\	8f#/L	2d\
.	8g/	.
.	8a/	.
.	8b/J	.
=8	=8	=8
2A;>\	2cc;>/	2c;<\
2G\	8b/L	2g\
.	8cc/	.
.	8dd/	.
.	8b/J	.
=9	=9	=9
2A\	8cc/L	2e\
.	8dd/	.
.	8ee/	.
.	8cc/J	.
2B\	8b/L	2d\
.	8cc/	.
.	8dd/	.
.	8ee/J	.
=10	=10	=10
2A\	8ff#/L	2c\
.	8gg/	.
.	8aa/	.
.	8a/J	.
2G\	8b/L	2d\
.	8a/	.
.	8b/	.
.	8dd/J	.
=11	=11	=11
2E\	8cc/L	2e\
.	8b/	.
.	8cc/	.
.	8g/J	.
2F#\	8a/L	2d\
.	8g/	.
.	8f#/	.
.	8a/J	.
!!LO:LB:g=original
=12	=12	=12
2G;>\	2b;>/	2B;<\
2d\	8ff#/L	2d\
.	8ee/	.
.	8ff#/	.
.	8aa/J	.
=13	=13	=13
2B\	8gg/L	[<2g\
.	8ff#/	.
.	8gg/	.
.	8dd/J	.
2G\	8ee/L	2g\]
.	8dd/	.
.	8ee/	.
.	8b/J	.
=14	=14	=14
2A\	8cc/L	2e\
.	8dd/	.
.	8cc/	.
.	8b/J	.
2c\	8a/L	2a\
.	8b/	.
.	8cc/	.
.	8ee/J	.
=15	=15	=15
2B\	8dd/L	2b\
.	8ee/	.
.	8ff#/	.
.	8dd/J	.
2A\	8cc/L	2cc\
.	8dd/	.
.	8ee/	.
.	8ff#/J	.
=16	=16	=16
2G;>\	2gg;>/	2b\
2ryy	2ryy	2ryy
*	*v	*v
!!LO:LB:g=original
==	==
*-	*-
!!!system-decoration: [(s1,s2)]
!!!RDF**kern: < = below
!!!RDF**kern: > = above
!!!AIN: 1 piano
!!!ENC: Anastazja Marusiak
!!!END: 2021-11-12
!!!ENC: Marta Chmielewska
!!!END: 2021-11-16
